X: 23
T: Polska efter Lapp-Nils
S: efter Lapp-Nils
R: Polska
O: Jämtland
Z: Håkan Lidén, 2005-03-20
M: 3/4
L: 1/8
K: Ddor
^c>d e<f d>e | ^c>d (3ege f>a | (3gag (3fed e>^c | (3def (3gag (3fed |
^c>d e<f d>e | ^c>d (3ege f>a | (3gag (3fed e>d | (3^cAc d4 :|
|: (3a2g2b2 a>f | d2 e2 f>a | (3gag (3fed e>^c | (3def (3gag (3fed |
f>a g<b a>f | d2 e2 f>a | (3gag (3fed e>d | (3^cAc d4 :|

